flaticon/transportation/car-1.svg

<svg xmlns="http://www.w3.org/2000/svg" width="32" height="32" viewBox="0 0 24 24">
    <path d="M 24 13.171875 L 21.1875 9.546875 L 15.15625 9.546875 L 13.339844 6.269531 L 4.824219 6.269531 L 3.867188 9.546875 L 3.339844 9.546875 L 3.339844 8.390625 C 3.339844 7.46875 2.589844 6.71875 1.671875 6.71875 C 0.75 6.71875 0 7.46875 0 8.390625 L 0 10.859375 C 0 11.746094 0.691406 12.472656 1.566406 12.527344 L 1.566406 15.84375 L 3.839844 15.84375 C 4.152344 16.933594 5.15625 17.730469 6.34375 17.730469 C 7.53125 17.730469 8.535156 16.933594 8.847656 15.84375 L 16.621094 15.84375 C 16.933594 16.933594 17.949219 17.730469 19.125 17.730469 C 20.3125 17.730469 21.3125 16.933594 21.625 15.84375 L 24 15.84375 Z M 13.988281 9.546875 L 9.996094 9.546875 L 9.996094 7.289062 L 12.738281 7.289062 Z M 8.972656 7.289062 L 8.972656 9.546875 L 4.933594 9.546875 L 5.589844 7.289062 Z M 1.019531 10.859375 L 1.019531 8.390625 C 1.019531 8.03125 1.3125 7.742188 1.671875 7.742188 C 2.027344 7.742188 2.320312 8.03125 2.320312 8.390625 L 2.320312 10.859375 C 2.320312 11.21875 2.027344 11.507812 1.671875 11.507812 C 1.3125 11.507812 1.019531 11.21875 1.019531 10.859375 Z M 6.34375 16.710938 C 5.472656 16.710938 4.761719 16 4.761719 15.128906 C 4.761719 14.253906 5.472656 13.542969 6.34375 13.542969 C 7.21875 13.542969 7.925781 14.253906 7.925781 15.128906 C 7.925781 16 7.21875 16.710938 6.34375 16.710938 Z M 19.125 16.710938 C 17.75 16.710938 17.539062 15.359375 17.539062 15.128906 C 17.539062 14.253906 18.25 13.542969 19.125 13.542969 C 19.996094 13.542969 20.707031 14.253906 20.707031 15.128906 C 20.707031 16 19.992188 16.710938 19.125 16.710938 Z M 22.980469 14.820312 L 21.707031 14.820312 C 21.558594 13.53125 20.457031 12.523438 19.125 12.523438 C 17.792969 12.523438 16.691406 13.53125 16.539062 14.820312 L 8.929688 14.820312 C 8.777344 13.53125 7.675781 12.523438 6.34375 12.523438 C 5.011719 12.523438 3.910156 13.53125 3.757812 14.820312 L 2.585938 14.820312 L 2.585938 12.253906 C 3.039062 11.957031 3.339844 11.441406 3.339844 10.859375 L 3.339844 10.566406 L 20.6875 10.566406 L 22.980469 13.519531 Z M 22.980469 14.820312"/>
</svg>

<svg xmlns="http://www.w3.org/2000/svg" width="32" height="32" viewBox="0 0 24 24">
    <path d="M24 13.172l-2.813-3.625h-6.03L13.34 6.27H4.824l-.957 3.277H3.34V8.39c0-.922-.75-1.672-1.668-1.672C.75 6.719 0 7.469 0 8.39v2.468c0 .887.691 1.614 1.566 1.668v3.317H3.84a2.607 2.607 0 0 0 2.504 1.886 2.607 2.607 0 0 0 2.504-1.886h7.773a2.618 2.618 0 0 0 2.504 1.886 2.602 2.602 0 0 0 2.5-1.886H24zM13.988 9.547H9.996V7.289h2.742zM8.973 7.289v2.258h-4.04l.657-2.258zM1.02 10.86V8.391a.65.65 0 0 1 1.3 0v2.468a.65.65 0 0 1-1.3 0zm5.324 5.852c-.871 0-1.582-.711-1.582-1.582 0-.875.71-1.586 1.582-1.586a1.584 1.584 0 0 1 0 3.168zm12.781 0c-1.375 0-1.586-1.352-1.586-1.582 0-.875.711-1.586 1.586-1.586.871 0 1.582.71 1.582 1.586 0 .871-.715 1.582-1.582 1.582zm3.855-1.89h-1.273a2.603 2.603 0 0 0-2.582-2.298 2.61 2.61 0 0 0-2.586 2.297H8.93a2.61 2.61 0 0 0-2.585-2.297 2.61 2.61 0 0 0-2.586 2.297H2.586v-2.566c.453-.297.754-.813.754-1.395v-.293h17.348l2.292 2.954zm0 0"/>
</svg>
